ix/money-remove_bold.svg

<svg viewBox="0 0 24 24" fill="none" xmlns="http://www.w3.org/2000/svg" height="1em" width="1em">
  <path d="M17 4H7C4 4 2 5.5 2 9v3.56c0 .37.38.6.71.45.98-.45 2.11-.62 3.3-.41 2.63.47 4.56 2.91 4.49 5.58-.01.42-.07.83-.18 1.23-.08.31.17.6.49.6H17c3 0 5-1.5 5-5V9c0-3.5-2-5-5-5Zm-5 10.5a2.5 2.5 0 0 1 0-5 2.5 2.5 0 0 1 0 5Zm7.25-.5c0 .41-.34.75-.75.75s-.75-.34-.75-.75v-4c0-.41.34-.75.75-.75s.75.34.75.75v4Z" fill="#292D32"/>
  <path d="M5 14c-1.2 0-2.27.53-3 1.36A4 4 0 0 0 1 18c0 .75.21 1.46.58 2.06A3.97 3.97 0 0 0 5 22c1.01 0 1.93-.37 2.63-1 .31-.26.58-.58.79-.94.37-.6.58-1.31.58-2.06 0-2.21-1.79-4-4-4Zm1.6 5.58c-.15.15-.34.22-.53.22s-.38-.07-.53-.22l-.53-.53-.55.55c-.15.15-.34.22-.53.22s-.38-.07-.53-.22a.754.754 0 0 1 0-1.06l.55-.55-.53-.53a.754.754 0 0 1 0-1.06c.29-.29.77-.29 1.06 0l.53.53.5-.5c.29-.29.77-.29 1.06 0 .29.29.29.77 0 1.06l-.5.5.53.53c.29.29.29.76 0 1.06Z" fill="#292D32"/>
</svg>

<svg viewBox="0 0 24 24" fill="none" xmlns="http://www.w3.org/2000/svg" height="1em" width="1em">
  <path d="M17 4H7C4 4 2 5.5 2 9V12.56C2 12.93 2.38 13.16 2.71 13.01C3.69 12.56 4.82 12.39 6.01 12.6C8.64 13.07 10.57 15.51 10.5 18.18C10.49 18.6 10.43 19.01 10.32 19.41C10.24 19.72 10.49 20.01 10.81 20.01H17C20 20.01 22 18.51 22 15.01V9C22 5.5 20 4 17 4ZM12 14.5C10.62 14.5 9.5 13.38 9.5 12C9.5 10.62 10.62 9.5 12 9.5C13.38 9.5 14.5 10.62 14.5 12C14.5 13.38 13.38 14.5 12 14.5ZM19.25 14C19.25 14.41 18.91 14.75 18.5 14.75C18.09 14.75 17.75 14.41 17.75 14V10C17.75 9.59 18.09 9.25 18.5 9.25C18.91 9.25 19.25 9.59 19.25 10V14Z" fill="#292D32"/>
  <path d="M5 14C3.8 14 2.73 14.53 2 15.36C1.38 16.07 1 16.99 1 18C1 18.75 1.21 19.46 1.58 20.06C2.27 21.22 3.54 22 5 22C6.01 22 6.93 21.63 7.63 21C7.94 20.74 8.21 20.42 8.42 20.06C8.79 19.46 9 18.75 9 18C9 15.79 7.21 14 5 14ZM6.6 19.58C6.45 19.73 6.26 19.8 6.07 19.8C5.88 19.8 5.69 19.73 5.54 19.58L5.01 19.05L4.46 19.6C4.31 19.75 4.12 19.82 3.93 19.82C3.74 19.82 3.55 19.75 3.4 19.6C3.11 19.31 3.11 18.83 3.4 18.54L3.95 17.99L3.42 17.46C3.13 17.17 3.13 16.69 3.42 16.4C3.71 16.11 4.19 16.11 4.48 16.4L5.01 16.93L5.51 16.43C5.8 16.14 6.28 16.14 6.57 16.43C6.86 16.72 6.86 17.2 6.57 17.49L6.07 17.99L6.6 18.52C6.89 18.81 6.89 19.28 6.6 19.58Z" fill="#292D32"/>
</svg>
